X:164
T:Seamus Seán Mór's Strathspey*
B:NFID.193 ("untitled strathspey")
164seam_sm
S:DOD
L:1/8
M:C
R:hornpipe
Q:280
K:A
E|ABGA FAEC|DFCE (3B,CD (3EFG|ABGA FAEd|(3cAc (3BGB (3Afe (3dcB|
ABGA FAEC|DFCE (3B,CD (3EFG|AfGe FdEd|cABG A3:|
A/B/|: AaB<b aece|dfec Bd c/B/A/G/|AaB<b aced|(3cAc (3BGB (3Afe (3dcB|
AaB<b aece|dfec Bd c/B/A/G/|AECE FDB,d|(3cAc (3BGB A2 [c2E2]:|

%%%

